public/img/homepage/smiley-awards-main-title.svg

<svg fill="none" height="89" viewBox="0 0 260 89" width="260" xmlns="http://www.w3.org/2000/svg"><g clip-rule="evenodd" fill="#fff" fill-rule="evenodd"><path d="m11.601 70.9325-2.8453 6.9398h5.6906zm6.4822 15.8986-1.9562-4.8015h-9.05203l-1.95614 4.8015h-4.801447l9.173497-21.5545h4.34172l9.1735 21.5545z"/><path d="m65.4348 86.9836h-4.0966l-4.8318-14.0032-4.8318 14.0032h-4.0945l-7.3106-21.5545h5.0465l4.435 14.4911 4.7971-14.554h4.0381l4.8014 14.554 4.4328-14.4911h4.9229z"/><path d="m101.298 70.9325-2.8453 6.9398h5.6903zm6.482 15.8986-1.956-4.8015h-9.052l-1.9561 4.8015h-4.7993l9.1713-21.5545h4.3421l9.173 21.5545z"/><path d="m147.43 72.7347c0-2.019-1.406-3.0556-3.7-3.0556h-4.678v6.146h4.769c2.294 0 3.609-1.2253 3.609-3.0296zm-.092 14.0964-4.586-6.8487h-3.7v6.8487h-4.708v-21.4026h9.785c5.044 0 8.069 2.6588 8.069 7.0633v.0608c0 3.4547-1.862 5.6255-4.584 6.6361l5.226 7.6424z"/><path d="m189.615 76.1297c0-3.7909-2.598-6.4519-6.452-6.4519h-3.636v12.9037h3.636c3.854 0 6.452-2.6003 6.452-6.3911zm-6.452 10.7024h-8.345v-21.4049h8.345c6.728 0 11.377 4.6172 11.377 10.6417v.0608c0 6.0224-4.649 10.7024-11.377 10.7024z"/><path d="m224.403 87.136c-3.243 0-6.515-1.1298-9.081-3.4243l2.783-3.3311c1.923 1.5875 3.942 2.5981 6.389 2.5981 1.928 0 3.088-.7655 3.088-2.019v-.0608c0-1.1927-.733-1.8043-4.309-2.7217-4.314-1.1016-7.096-2.2922-7.096-6.5407v-.0629c0-3.8841 3.12-6.4518 7.49-6.4518 3.121 0 5.78.9781 7.951 2.7217l-2.447 3.5458c-1.895-1.3142-3.76-2.108-5.564-2.108-1.805 0-2.752.8241-2.752 1.8651v.0586c0 1.4096.917 1.8672 4.617 2.8149 4.341 1.132 6.788 2.6892 6.788 6.4214v.0586c0 4.2506-3.24 6.6361-7.857 6.6361z"/><path d="m252.417 39.5779c0-.3058-.106-.5704-.327-.7916-.217-.2147-.517-.3209-.881-.3209h-1.247v2.2315h1.247c.364 0 .664-.1062.881-.3253.221-.2168.327-.4771.327-.7937zm0 5.1051-1.516-2.9234h-.939v2.9234h-1.357v-7.3649h2.773c.354 0 .67.0586.961.1844.291.1171.538.2862.746.4836.208.1995.367.4533.49.733.117.2711.178.5617.178.8588 0 .5313-.137.9629-.423 1.2925-.288.334-.622.5682-1.03.7114l1.642 3.1012zm4.014-3.6759c0-.7699-.143-1.5029-.425-2.173-.29-.6897-.67-1.2752-1.16-1.7632-.49-.5031-1.067-.8805-1.72-1.1862-.663-.2798-1.368-.4186-2.142-.4186-.759 0-1.486.1388-2.15.4186-.661.3057-1.236.6831-1.728 1.1862-.488.488-.874 1.0735-1.16 1.7632-.28.6701-.425 1.4031-.425 2.173 0 .7872.145 1.5159.425 2.1903.286.6745.672 1.2644 1.16 1.7567.492.4944 1.067.9043 1.728 1.1775.664.2906 1.391.4403 2.15.4403.774 0 1.479-.1497 2.142-.4403.653-.2732 1.23-.6831 1.72-1.1775.49-.4923.87-1.0822 1.16-1.7567.282-.6744.425-1.4031.425-2.1903zm1.362 0c0 .9477-.171 1.839-.54 2.6674-.36.822-.839 1.5441-1.444 2.1644-.616.605-1.334 1.0995-2.169 1.4595-.824.3535-1.72.5378-2.656.5378-.952 0-1.824-.1843-2.664-.5378-.817-.36-1.537-.8545-2.157-1.4595-.614-.6203-1.104-1.3424-1.464-2.1644-.349-.8284-.536-1.7197-.536-2.6674 0-.9326.187-1.8196.536-2.6458.36-.8285.85-1.5528 1.464-2.1709.62-.6094 1.34-1.1017 2.157-1.4682.84-.3491 1.712-.5313 2.664-.5313.936 0 1.832.1822 2.656.5313.835.3665 1.553.8588 2.169 1.4682.605.6181 1.084 1.3424 1.444 2.1709.369.8262.54 1.7132.54 2.6458z"/><path d="m2.41038 40.7321 4.67566-5.6038c.34699-.4143.96072-.4663 1.38578-.1323 3.89278 3.047 7.99588 4.9489 12.90798 4.9489 4.1183 0 6.6058-1.6374 6.6058-4.3178v-.1302c0-2.5503-1.5723-3.858-9.2212-5.8207-9.22559-2.3552-15.17426-4.9055-15.17426-13.9988v-.1301c0-8.30603 6.67086-13.80145 16.02436-13.80145 6.3065 0 11.7368 1.87157 16.2325 5.22867.4337.32314.5248.94988.219 1.39446l-4.1269 5.98122c-.308.4489-.9217.553-1.375.2516-3.7735-2.481-7.4841-3.96-11.0819-3.96-3.8603 0-5.888 1.7653-5.888 3.9903v.1301c0 3.0102 1.9627 3.9904 9.8783 6.0181 9.2863 2.4202 14.5193 5.7557 14.5193 13.7364v.1279c0 9.0933-6.9311 14.1919-16.8094 14.1919-6.6123 0-13.28311-2.1969-18.64841-6.6557-.43373-.3578-.48144-1.0215-.12361-1.4487z"/><path d="m47.7763 2.40332h9.295c.347 0 .6701.17783.8523.47277l11.7412 18.88481 11.739-18.88481c.1822-.29277.5031-.47277.848-.47277h9.3014c.5508 0 .9998.44892.9998 1.00193v43.77685c0 .553-.449 1.0019-.9998 1.0019h-8.0002c-.5552 0-1.002-.4489-1.002-1.0019v-28.8867l-12.8862 19.5571h-.2624l-12.754-19.362v28.6916c0 .553-.4489 1.0019-1.0041 1.0019h-7.868c-.5551 0-1.0019-.4489-1.0019-1.0019v-43.77685c0-.55301.4468-1.00193 1.0019-1.00193z"/><path d="m105.024 2.40332h8.07c.555 0 1.004.44892 1.004 1.00193v43.77685c0 .553-.449 1.0019-1.004 1.0019h-8.07c-.553 0-1.002-.4489-1.002-1.0019v-43.77685c0-.55301.449-1.00193 1.002-1.00193z"/><path d="m126.552 2.40332h8.065c.555 0 1.004.44892 1.004 1.00193v35.62485h21.822c.553 0 1.001.4489 1.001 1.0019v7.1501c0 .553-.448 1.0019-1.001 1.0019h-31.895v-44.77875c0-.55301.449-1.00193 1.004-1.00193z"/><path d="m167.05 2.40332h32.528c.555 0 1.002.44892 1.002 1.00193v6.95275c0 .5552-.447 1.0041-1.002 1.0041h-23.526v9.2863h20.585c.551 0 1 .4489 1 1.0019v6.9571c0 .5552-.449 1.0041-1 1.0041h-20.585v9.6137h23.847c.557 0 1.006.4511 1.006 1.002v6.9549c0 .553-.449 1.0019-1.006 1.0019h-32.849c-.553 0-1.002-.4489-1.002-1.0019v-43.77685c0-.55301.449-1.00193 1.002-1.00193z"/><path d="m222.766 30.1322-16.614-26.19105c-.423-.66578.054-1.53759.846-1.53759h9.379c.354 0 .681.18434.861.48796l10.633 17.88938 10.826-17.89372c.182-.30145.505-.48362.857-.48362h9.05c.791 0 1.27.87398.845 1.54193l-16.607 25.98941v17.2475c0 .553-.451 1.0019-1.002 1.0019h-8.07c-.555 0-1.004-.4489-1.004-1.0019z"/></g></svg>

<svg width="260" height="89" viewBox="0 0 260 89" fill="none" xmlns="http://www.w3.org/2000/svg">
<path fill-rule="evenodd" clip-rule="evenodd" d="M11.601 70.9325L8.7557 77.8723H14.4463L11.601 70.9325ZM18.0832 86.8311L16.127 82.0296H7.07497L5.11883 86.8311H0.317383L9.49088 65.2766H13.8326L23.0061 86.8311H18.0832Z" fill="white"/>
<path fill-rule="evenodd" clip-rule="evenodd" d="M65.4348 86.9836H61.3382L56.5064 72.9804L51.6746 86.9836H47.5801L40.2695 65.4291H45.316L49.751 79.9202L54.5481 65.3662H58.5862L63.3876 79.9202L67.8204 65.4291H72.7433L65.4348 86.9836Z" fill="white"/>
<path fill-rule="evenodd" clip-rule="evenodd" d="M101.298 70.9325L98.4527 77.8723H104.143L101.298 70.9325ZM107.78 86.8311L105.824 82.0296H96.772L94.8159 86.8311H90.0166L99.1879 65.2766H103.53L112.703 86.8311H107.78Z" fill="white"/>
<path fill-rule="evenodd" clip-rule="evenodd" d="M147.43 72.7347C147.43 70.7157 146.024 69.6791 143.73 69.6791H139.052V75.8251H143.821C146.115 75.8251 147.43 74.5998 147.43 72.7955V72.7347ZM147.338 86.8311L142.752 79.9824H139.052V86.8311H134.344V65.4285H144.129C149.173 65.4285 152.198 68.0873 152.198 72.4918V72.5526C152.198 76.0073 150.336 78.1781 147.614 79.1887L152.84 86.8311H147.338Z" fill="white"/>
<path fill-rule="evenodd" clip-rule="evenodd" d="M189.615 76.1297C189.615 72.3388 187.017 69.6778 183.163 69.6778H179.527V82.5815H183.163C187.017 82.5815 189.615 79.9812 189.615 76.1904V76.1297ZM183.163 86.8321H174.818V65.4272H183.163C189.891 65.4272 194.54 70.0444 194.54 76.0689V76.1297C194.54 82.1521 189.891 86.8321 183.163 86.8321Z" fill="white"/>
<path fill-rule="evenodd" clip-rule="evenodd" d="M224.403 87.136C221.16 87.136 217.888 86.0062 215.322 83.7117L218.105 80.3806C220.028 81.9681 222.047 82.9787 224.494 82.9787C226.422 82.9787 227.582 82.2132 227.582 80.9597V80.8989C227.582 79.7062 226.849 79.0946 223.273 78.1772C218.959 77.0756 216.177 75.885 216.177 71.6365V71.5736C216.177 67.6895 219.297 65.1218 223.667 65.1218C226.788 65.1218 229.447 66.0999 231.618 67.8435L229.171 71.3893C227.276 70.0751 225.411 69.2813 223.607 69.2813C221.802 69.2813 220.855 70.1054 220.855 71.1464V71.205C220.855 72.6146 221.772 73.0722 225.472 74.0199C229.813 75.1519 232.26 76.7091 232.26 80.4413V80.4999C232.26 84.7505 229.02 87.136 224.403 87.136Z" fill="white"/>
<path fill-rule="evenodd" clip-rule="evenodd" d="M252.417 39.5779C252.417 39.2721 252.311 39.0075 252.09 38.7863C251.873 38.5716 251.573 38.4654 251.209 38.4654H249.962V40.6969H251.209C251.573 40.6969 251.873 40.5907 252.09 40.3716C252.311 40.1548 252.417 39.8945 252.417 39.5779ZM252.417 44.683L250.901 41.7596H249.962V44.683H248.605V37.3181H251.378C251.732 37.3181 252.048 37.3767 252.339 37.5025C252.63 37.6196 252.877 37.7887 253.085 37.9861C253.293 38.1856 253.452 38.4394 253.575 38.7191C253.692 38.9902 253.753 39.2808 253.753 39.5779C253.753 40.1092 253.616 40.5408 253.33 40.8704C253.042 41.2044 252.708 41.4386 252.3 41.5818L253.942 44.683H252.417ZM256.431 41.0071C256.431 40.2372 256.288 39.5042 256.006 38.8341C255.716 38.1444 255.336 37.5589 254.846 37.0709C254.356 36.5678 253.779 36.1904 253.126 35.8847C252.463 35.6049 251.758 35.4661 250.984 35.4661C250.225 35.4661 249.498 35.6049 248.834 35.8847C248.173 36.1904 247.598 36.5678 247.106 37.0709C246.618 37.5589 246.232 38.1444 245.946 38.8341C245.666 39.5042 245.521 40.2372 245.521 41.0071C245.521 41.7943 245.666 42.523 245.946 43.1974C246.232 43.8719 246.618 44.4618 247.106 44.9541C247.598 45.4485 248.173 45.8584 248.834 46.1316C249.498 46.4222 250.225 46.5719 250.984 46.5719C251.758 46.5719 252.463 46.4222 253.126 46.1316C253.779 45.8584 254.356 45.4485 254.846 44.9541C255.336 44.4618 255.716 43.8719 256.006 43.1974C256.288 42.523 256.431 41.7943 256.431 41.0071ZM257.793 41.0071C257.793 41.9548 257.622 42.8461 257.253 43.6745C256.893 44.4965 256.414 45.2186 255.809 45.8389C255.193 46.4439 254.475 46.9384 253.64 47.2984C252.816 47.6519 251.92 47.8362 250.984 47.8362C250.032 47.8362 249.16 47.6519 248.32 47.2984C247.503 46.9384 246.783 46.4439 246.163 45.8389C245.549 45.2186 245.059 44.4965 244.699 43.6745C244.35 42.8461 244.163 41.9548 244.163 41.0071C244.163 40.0745 244.35 39.1875 244.699 38.3613C245.059 37.5328 245.549 36.8085 246.163 36.1904C246.783 35.581 247.503 35.0887 248.32 34.7222C249.16 34.3731 250.032 34.1909 250.984 34.1909C251.92 34.1909 252.816 34.3731 253.64 34.7222C254.475 35.0887 255.193 35.581 255.809 36.1904C256.414 36.8085 256.893 37.5328 257.253 38.3613C257.622 39.1875 257.793 40.0745 257.793 41.0071Z" fill="white"/>
<path fill-rule="evenodd" clip-rule="evenodd" d="M2.41038 40.7321L7.08604 35.1283C7.43303 34.714 8.04676 34.662 8.47182 34.996C12.3646 38.043 16.4677 39.9449 21.3798 39.9449C25.4981 39.9449 27.9856 38.3075 27.9856 35.6271V35.4969C27.9856 32.9466 26.4133 31.6389 18.7644 29.6762C9.53881 27.321 3.59014 24.7707 3.59014 15.6774V15.5473C3.59014 7.24127 10.261 1.74585 19.6145 1.74585C25.921 1.74585 31.3513 3.61742 35.847 6.97452C36.2807 7.29766 36.3718 7.9244 36.066 8.36898L31.9391 14.3502C31.6311 14.7991 31.0174 14.9032 30.5641 14.6018C26.7906 12.1208 23.08 10.6418 19.4822 10.6418C15.6219 10.6418 13.5942 12.4071 13.5942 14.6321V14.7622C13.5942 17.7724 15.5569 18.7526 23.4725 20.7803C32.7588 23.2005 37.9918 26.536 37.9918 34.5167V34.6446C37.9918 43.7379 31.0607 48.8365 21.1824 48.8365C14.5701 48.8365 7.89929 46.6396 2.53399 42.1808C2.10026 41.823 2.05255 41.1593 2.41038 40.7321Z" fill="white"/>
<path fill-rule="evenodd" clip-rule="evenodd" d="M47.7763 2.40332H57.0713C57.4183 2.40332 57.7414 2.58115 57.9236 2.87609L69.6648 21.7609L81.4038 2.87609C81.586 2.58332 81.9069 2.40332 82.2518 2.40332H91.5532C92.104 2.40332 92.553 2.85224 92.553 3.40525V47.1821C92.553 47.7351 92.104 48.184 91.5532 48.184H83.553C82.9978 48.184 82.551 47.7351 82.551 47.1821V18.2954L69.6648 37.8525H69.4024L56.6484 18.4905V47.1821C56.6484 47.7351 56.1995 48.184 55.6443 48.184H47.7763C47.2212 48.184 46.7744 47.7351 46.7744 47.1821V3.40525C46.7744 2.85224 47.2212 2.40332 47.7763 2.40332Z" fill="white"/>
<path fill-rule="evenodd" clip-rule="evenodd" d="M105.024 2.40332H113.094C113.649 2.40332 114.098 2.85224 114.098 3.40525V47.1821C114.098 47.7351 113.649 48.184 113.094 48.184H105.024C104.471 48.184 104.022 47.7351 104.022 47.1821V3.40525C104.022 2.85224 104.471 2.40332 105.024 2.40332Z" fill="white"/>
<path fill-rule="evenodd" clip-rule="evenodd" d="M126.552 2.40332H134.617C135.172 2.40332 135.621 2.85224 135.621 3.40525V39.0301H157.443C157.996 39.0301 158.444 39.479 158.444 40.032V47.1821C158.444 47.7351 157.996 48.184 157.443 48.184H125.548V3.40525C125.548 2.85224 125.997 2.40332 126.552 2.40332Z" fill="white"/>
<path fill-rule="evenodd" clip-rule="evenodd" d="M167.05 2.40332H199.578C200.133 2.40332 200.58 2.85224 200.58 3.40525V10.358C200.58 10.9132 200.133 11.3621 199.578 11.3621H176.052V20.6484H196.637C197.188 20.6484 197.637 21.0973 197.637 21.6503V28.6074C197.637 29.1626 197.188 29.6115 196.637 29.6115H176.052V39.2252H199.899C200.456 39.2252 200.905 39.6763 200.905 40.2272V47.1821C200.905 47.7351 200.456 48.184 199.899 48.184H167.05C166.497 48.184 166.048 47.7351 166.048 47.1821V3.40525C166.048 2.85224 166.497 2.40332 167.05 2.40332Z" fill="white"/>
<path fill-rule="evenodd" clip-rule="evenodd" d="M222.766 30.1322L206.152 3.94115C205.729 3.27537 206.206 2.40356 206.998 2.40356H216.377C216.731 2.40356 217.058 2.5879 217.238 2.89152L227.871 20.7809L238.697 2.88718C238.879 2.58573 239.202 2.40356 239.554 2.40356H248.604C249.395 2.40356 249.874 3.27754 249.449 3.94549L232.842 29.9349V47.1824C232.842 47.7354 232.391 48.1843 231.84 48.1843H223.77C223.215 48.1843 222.766 47.7354 222.766 47.1824V30.1322Z" fill="white"/>
</svg>
